src/svg/28/comment_outline_28.svg

<svg height="28" viewBox="0 0 28 28" width="28" xmlns="http://www.w3.org/2000/svg"><g fill="none" fill-rule="evenodd" transform=""><path d="m0 0h28v28h-28z"/><path d="m16.060288 20.3541248c.2977427-.260525.6799264-.4041248 1.0755575-.4041248h4.4474878c1.1701011 0 1.8666667-.6965656 1.8666667-1.8666667v-9.3333333c0-1.17010103-.6965656-1.86666669-1.8666667-1.86666669h-13.99999997c-1.17010102 0-1.86666669.69656566-1.86666669 1.86666669v9.3333333c0 1.1701011.69656567 1.8666667 1.86666669 1.8666667h2.91549997c.815855.2353117.815855.2353117 1.0511667 1.0511667v3.299979zm-5.752788 5.9337918c-.55067865-.413009-.85749997-1.1417096-.85749997-1.7879166v-2.45h-1.8666667c-2.32989897 0-3.96666664-1.6367677-3.96666664-3.9666667v-9.3333333c0-2.32989897 1.63676767-3.96666664 3.96666664-3.96666664h13.99999997c2.329899 0 3.9666667 1.63676767 3.9666667 3.96666664v9.3333333c0 2.329899-1.6367677 3.9666667-3.9666667 3.9666667h-4.2721448l-4.3455051 3.8023169c-.8549835.8385971-1.8539883 1.0387461-2.6581834.4355997z" fill="currentColor" fill-rule="nonzero"/></g></svg>

<?xml version="1.0" encoding="UTF-8"?>
<svg width="28px" height="28px" viewBox="0 0 28 28" version="1.1" xmlns="http://www.w3.org/2000/svg" xmlns:xlink="http://www.w3.org/1999/xlink">
    <!-- Generator: Sketch 63.1 (92452) - https://sketch.com -->
    <title>comment_outline_28</title>
    <desc>Created with Sketch.</desc>
    <g id="Page-1" stroke="none" stroke-width="1" fill="none" fill-rule="evenodd">
        <g id="comment_outline_28">
            <polygon points="0 0 28 0 28 28 0 28"></polygon>
            <path d="M16.060288,20.3541248 C16.3580307,20.0935998 16.7402144,19.95 17.1358455,19.95 L21.5833333,19.95 C22.7534344,19.95 23.45,19.2534344 23.45,18.0833333 L23.45,8.75 C23.45,7.57989897 22.7534344,6.88333331 21.5833333,6.88333331 L7.58333333,6.88333331 C6.41323231,6.88333331 5.71666664,7.57989897 5.71666664,8.75 L5.71666664,18.0833333 C5.71666664,19.2534344 6.41323231,19.95 7.58333333,19.95 L10.4988333,19.95 C11.3146883,20.1853117 11.3146883,20.1853117 11.55,21.0011667 L11.55,24.3011457 L16.060288,20.3541248 Z M10.3075,26.2879166 C9.75682135,25.8749076 9.45000003,25.146207 9.45000003,24.5 L9.45000003,22.05 L7.58333333,22.05 C5.25343436,22.05 3.61666669,20.4132323 3.61666669,18.0833333 L3.61666669,8.75 C3.61666669,6.42010103 5.25343436,4.78333336 7.58333333,4.78333336 L21.5833333,4.78333336 C23.9132323,4.78333336 25.55,6.42010103 25.55,8.75 L25.55,18.0833333 C25.55,20.4132323 23.9132323,22.05 21.5833333,22.05 L17.3111885,22.05 L12.9656834,25.8523169 C12.1106999,26.690914 11.1116951,26.891063 10.3075,26.2879166 Z" id="↳-Icon-Color" fill="currentColor" fill-rule="nonzero"></path>
        </g>
    </g>
</svg>
